X:1
T:I Wish I Had A Girl
T:I Wish I Had A Girl
T:Grace Le Boy
T:Gus Kahn
C:Grace Le Boy
Z:Gus Kahn
%%score [ 1 2 3 4 ]
L:1/8
Q:1/4=100
M:2/2
K:F
V:1 treble-8 nm="Tenor"
V:2 treble-8 nm="Lead"
V:3 bass nm="Baritone"
V:4 bass nm="Bass"
V:1
 !>!f4- ffff | f f2 c c2 cc | d2 d2 c2 d2 | d4 (^cd_e=e) | f2 f2- f e f ^f | g f2 e e3 e | %6
w: Gee, _ I wish that|I had a girl like the|oth- er fel- lows|had, Hm _ _ _|Some one _ to make a|fuss o- ver me, To|
 f2 c f- f2 f2 | f2 f e- e2 e2 | _e2 e e- e2 g2 | ^f2 _e d- d2 d d | d d d d- d2 d d | %11
w: cheer me up _ when|I feel sad, _ On|Wednes- day night _ I'm|all a- lone, _ When I|ought to be up _ at some|
 d2 d2 !fermata!f2 z2 | c2 c2 =B2 B2 |1 c2 f2 !fermata!^f2 f2 | f2 f e- e2 e2 | c4 e4 :|2 %16
w: sweet- heart's home,|lone- some, aw- ful|lone- some," Gee, I|wish I Had _ A|Girl. Hm.|
 c2 f2 !fermata!^f2 f2 || f2 g f- f2 e2 | f8 |] %19
w: lone- some," Gee, I|Wish I Had _ A|Girl.|
V:2
 !>!A4- AB=Bc | d c2 A F2 E_E | D2 G2 ^F2 A2 | G4 (B=Bc^c) | d2 d2- d ^c d ^d | e =d2 =c A3 G | %6
w: Gee, _ I wish that|I had a girl like the|oth- er fel- lows|had, Hm _ _ _|Some one _ to make a|fuss o- ver me, To|
 F2 A c- c2 _d2 | =d2 _d c- c2 c2 | c2 c c- c2 ^c2 | d2 =c B- B2 A A | A A G ^F- F2 G G | %11
w: cheer me up _ when|I feel sad, _ On|Wednes- day night _ I'm|all a- lone, _ When I|ought to be up _ at some|
 A2 G2 !fermata!D2 =F G | A2 f2 e2 d2 |1 A2 c2 !fermata!d2 A2 | G2 A G- G2 A2 | F4 B4 :|2 %16
w: sweet- heart's home, And "I'm|lone- some, aw- ful|lone- some," Gee, I|wish I Had _ A|Girl. Hm.|
 A2 c2 !fermata!d2 A2 || d2 e d- d _d c2 | c8 |] %19
w: lone- some," Gee, I|Wish I Had _ _ A|Girl.|
V:3
 !>!C4- CG,^G,A, | A, A,2 F, F,2 G,F, | F,2 B,2 A,2 ^F,2 | D,4 (G,^G,A,B,) | %4
w: Gee, _ I wish that|I had a girl like the|oth- er fel- lows|had, Hm _ _ _|
 =B,2 B,2- B, ^A, B, B, | _B, B,2 B, C3 B, | A,2 A, A,- A,2 =B,2 | _B,2 B, B,- B,2 B,2 | %8
w: Some one _ to make a|fuss o- ver me, To|cheer me up _ when|I feel sad, _ On|
 A,2 A, A,- A,2 A,2 | A,2 G, ^F,- F,2 F, F, | D, D, D, D,- D,2 D, D, | ^F,2 G,2 !fermata!^G,2 z2 | %12
w: Wednes- day night _ I'm|all a- lone, _ When I|ought to be up _ at some|sweet- heart's home,|
 F,2 A,2 ^G,2 G,2 |1 A,2 A,2 !fermata!C2 C2 | =B,2 B, _B,- B,2 C2 | A,4 C4 :|2 %16
w: lone- some, aw- ful|lone- some," Gee, I|wish I Had _ A|Girl. Hm.|
 A,2 A,2 !fermata!C2 C2 || =B,2 B, _B,- B,2 B,2 | A,8 |] %19
w: lone- some," Gee, I|Wish I Had _ A|Girl.|
V:4
 !>!F,4- F,F,F,F, | F, F,2 A,, A,,2 A,,A,, | B,,2 B,,2 D,2 C,2 | B,,4 (_E,=E,F,^F,) | %4
w: Gee, _ I wish that|I had a girl like the|oth- er fel- lows|had, Hm _ _ _|
 G,2 G,2- G, G,, G,, G,, | C, C,2 C, C,3 C, | F,,2 F, F,- F,2 _A,2 | G,2 G, C,- C,2 C,2 | %8
w: Some one _ to make a|fuss o- ver me, To|cheer me up _ when|I feel sad, _ On|
 F,2 F, F,- F,2 _E,2 | D,2 A,, D,- D,2 C, C, | B,, B,, B,, B,,- B,,2 B,, B,, | %11
w: Wednes- day night _ I'm|all a- lone, _ When I|ought to be up _ at some|
 B,,2 B,,2 !fermata!=B,,2 z2 | C,2 C,2 F,2 F,2 |1 F,2 _E,2 !fermata!D,2 D,2 | D,2 G,, C,- C,2 C,2 | %15
w: sweet- heart's home,|lone- some, aw- ful|lone- some," Gee, I|wish I Had _ A|
 F,,4 (G,A,G,C,) :|2 F,2 _E,2 !fermata!D,2 D,2 || G,2 G, C,- C,2 C,2 | F,8 |] %19
w: Girl. Hm. _ _ _|lone- some," Gee, I|Wish I Had _ A|Girl.|

